X: 24151
T: Looking Out The Window
R: reel
M: 4/4
K: Eminor
|:B,~E3 EDB,D|G3A BAGB|A3F D^CDE|FD3 ADFD|
B,~E3 E2FA|ABB2BABd|F3E EDDB,|1 A,B,DF EDB,D:|2 A,B,DF EDFA||
B3d e3g|ed (3efg ed (3B^cd|AFAB d^cde|fdfa fded|
Be (3eee e3g|ed (3efg ed (3B^cd|F3E EDDB,|A,B,DF EDFA|
B3d e3g|ed (3efg ed (3B^cd|AFAB d^cde|fdad bdad|
Be (3eee e3g|ed (3efg ed (3B^cd|F3E EDDB,|A,B,DF E4||

